X: 137
M: 6/4
L: 1/4
K: C
(EC)E (GE)G | ABc B2A | GAB (A/B/)dB | D3 D2G/F/ |\
EFG ABc | Bcd Ggf | e>dc GEG | c3- c2 :|
|: g |\
gec afd | gec fed | ABc def | B3 G2g |\
g/f/e/f/g/e/ a/g/f/g/a/f/ | g/f/e/f/g/e/ def | e>dc d>cB | c3 c2 :|

